X: 1
T: Hommage till en spelman
C:Torbj\"orn N\"asbom (May 2015)
R: march
Z: 2015 John Chambers <jc:trillian.mit.edu>
F: http://bluerose.karenlmyers.org/media/trans/2998.pdf
F: https://www.youtube.com/watch?v=sVo9y6qeTDI
N: When asked, Torbj\"orn said it was for 4 of his spelman friends who had died in the last year.
M: 2/4
L: 1/16
K: D
"^A"[| DE |\
"D"F2EF "A7"G2FG | "D"Adcd "G"B2cd | "D"A2de "Em"gfed | "A7"e6 DE | "D"F2EF "A7"G2FG | "D"Adcd "G"Bgfg |
"D"abaA "G"B2"A7"dc | "D"d6 "^B":| af | "G"b2gf "A7"e2ge | "D"a2fe "Bm"d2fd | "Em"g2ed "A7"cdBc | "D"d6 af |
"G"b2gf "A7"e2ge | "D"a2fe "Bm"d2fd | "Em"gfed "G"Bd"A7"c2 | "D"d2cB "A7"A2Bc | "D"d2cd "A7"e2de | "D"f2ef "G"g2ab |
"D"a2gf "A7"g2e2 | "D"d6 "d.C."y |]\
[|["Coda" DE | "D"F2EF "A7"G2FG | "D"Adcd "G"Bgfg | "D"abaA "G"B2"A7"dc | "D"d6 |]
